X:99
T:Slängpolska från Glanshammar
R:Polska
Z:2007-09-05
O:Glanshammar, Närke
M:3/4
L:1/8
K:D
A,D D2 D3/2E/2|FD/2F/2 FA A2|AB/2c/2 de/2f/2 g/2f/2e/2d/2|c/2d/2c/2B/2 A/2B/2A/2G/2 F/2G/2F/2E/2|
A,D D2 D3/2E/2|FD/2F/2 FA A2|A3/2B/2 cd ef|a/2g/2e/2c/2 cd d2:|
fe/2f/2 df df|f/2e/2d/2e/2 ce/2e/2 ce|d3/2c/2 BB/2c/2 df|e/2d/2c/2B/2 BA A2|
BA/2B/2 GB GB|B/2A/2G/2A/2 FA/2A/2 FA|G/2E/2F/2G/2 A/2B/2c/2d/2 ee/2f/2|a/2g/2e/2c/2 cd d2:|
(:musicend:)

(:music:)
%FolkWiki Känd genom:Mattias Helje
